svgs/thin/arrow-right-to-line.svg

<svg xmlns="http://www.w3.org/2000/svg" viewBox="0 0 448 512"><!-- Font Awesome Pro 6.0.0-alpha2 by @fontawesome - https://fontawesome.com License - https://fontawesome.com/license (Commercial License) --><path d="M349.656 261.656C352.781 258.531 352.781 253.469 349.656 250.344L197.656 98.344C196.094 96.781 194.062 96 192 96S187.906 96.781 186.344 98.344C183.219 101.469 183.219 106.531 186.344 109.656L324.688 248H8C3.594 248 0 251.578 0 256S3.594 264 8 264H324.688L186.344 402.344C183.219 405.469 183.219 410.531 186.344 413.656S194.531 416.781 197.656 413.656L349.656 261.656ZM448 440V72C448 67.582 444.418 64 440 64S432 67.582 432 72V440C432 444.418 435.582 448 440 448S448 444.418 448 440Z"/></svg>

<svg xmlns="http://www.w3.org/2000/svg" viewBox="0 0 448 512"><!--! Font Awesome Pro 6.4.0 by @fontawesome - https://fontawesome.com License - https://fontawesome.com/license (Commercial License) Copyright 2023 Fonticons, Inc. --><path d="M448 72c0-4.4-3.6-8-8-8s-8 3.6-8 8l0 368c0 4.4 3.6 8 8 8s8-3.6 8-8l0-368zM349.7 261.7c3.1-3.1 3.1-8.2 0-11.3l-136-136c-3.1-3.1-8.2-3.1-11.3 0s-3.1 8.2 0 11.3L324.7 248 8 248c-4.4 0-8 3.6-8 8s3.6 8 8 8l316.7 0L202.3 386.3c-3.1 3.1-3.1 8.2 0 11.3s8.2 3.1 11.3 0l136-136z"/></svg>
